X:1
T: Kitty Hayes Waltz
C:
M:3/8
K:G
L:1/8
d|dgg|gfd|daa|agd|bag|gfe|dgb|a2d|
dgg|gfd|daa|agd|bag|gfe|def|g2:|
|:b|aeg|gff|eB^c|dfb|aeg|gff|eB^c|d2d|
dgg|gfd|daa|agd|bag|gfe|def|g2!fine!:|
K:C
|:G|GEF|GcB|Adf|a2a|afd|Bed|cde|G2G|
GEF|GcB|Adf|a2a|gec|dAB|cce|c2!D.C.!y:|

